svgs/duotone/ufo.svg

<svg xmlns="http://www.w3.org/2000/svg" viewBox="0 0 640 512"><!--! Font Awesome Pro 6.4.2 by @fontawesome - https://fontawesome.com License - https://fontawesome.com/license (Commercial License) Copyright 2023 Fonticons, Inc. --><path class="fa-primary" style="fill:var(--fa-primary-color,inherit);opacity:var(--fa-primary-opacity,1);" d="M320 288c124.2 0 176-50.9 176-50.9c0-8.3-.6-16.5-1.7-24.5C582 235.5 640 275 640 320c0 70.7-143.3 128-320 128S0 390.7 0 320c0-45 58-84.5 145.7-107.4c-1.2 8-1.7 16.2-1.7 24.5c0 0 51.8 50.9 176 50.9zm24 88a24 24 0 1 0 -48 0 24 24 0 1 0 48 0zM128 352a24 24 0 1 0 0-48 24 24 0 1 0 0 48zm408-24a24 24 0 1 0 -48 0 24 24 0 1 0 48 0z"/><path class="fa-secondary" style="fill:var(--fa-secondary-color,inherit);opacity:var(--fa-secondary-opacity,.4);" d="M496 237.1s-51.8 50.9-176 50.9s-176-50.9-176-50.9C144 141.5 222.8 64 320 64s176 77.5 176 173.1z"/></svg>

<svg xmlns="http://www.w3.org/2000/svg" viewBox="0 0 640 512"><!--! Font Awesome Pro 6.1.1 by @fontawesome - https://fontawesome.com License - https://fontawesome.com/license (Commercial License) Copyright 2022 Fonticons, Inc. --><defs><style>.fa-secondary{opacity:.4}</style></defs><path class="fa-primary" d="M320 288C444.2 288 496 237.1 496 237.1C496 228.8 495.4 220.6 494.3 212.6C581.1 235.5 640 275 640 320C640 390.7 496.7 448 320 448C143.3 448 0 390.7 0 320C0 275 58.01 235.5 145.7 212.6C144.6 220.6 144 228.8 144 237.1C144 237.1 195.8 288 320 288zM320 352C306.7 352 296 362.7 296 376C296 389.3 306.7 400 320 400C333.3 400 344 389.3 344 376C344 362.7 333.3 352 320 352zM128 352C141.3 352 152 341.3 152 328C152 314.7 141.3 304 128 304C114.7 304 104 314.7 104 328C104 341.3 114.7 352 128 352zM512 304C498.7 304 488 314.7 488 328C488 341.3 498.7 352 512 352C525.3 352 536 341.3 536 328C536 314.7 525.3 304 512 304z"/><path class="fa-secondary" d="M496 237.1C496 237.1 444.2 288 320 288C195.8 288 144 237.1 144 237.1C144 141.5 222.8 64 320 64C417.2 64 496 141.5 496 237.1z"/></svg>
